X:1
T:Title
%%score ( 1 2 ) { ( 3 5 ) | 4 }
L:1/8
Q:1/4=140
M:3/4
K:Bb
V:1 treble nm="Canto\nVoice"
V:2 treble 
V:3 treble nm="Piano"
V:5 treble 
V:4 bass 
V:1
"^Allegretto vivace" z6 | z6 | z6 | z2 z2!mf! F2 |: F2 B2 d2 | f4 d2 | (e6 | A4) F2 | F2 A2 c2 | %9
 e4 c2 | (d6 | F4) F2 | F2 B2 d2 | f4 f2 | g6- | g4 c2 | f4 c2 | d4 A2 | B6- | B2 z2!mf! F2 || %20
"^A" F2 B2 d2 | f4 d2 | (e6 | A4) F2 | F2 A2 c2 | e4 c2 | (d6 | F4) F2 | F2 B2 d2 | f4 f2 | g6- | %31
 g4 c2 | f4 c2 | d4 A2 | B6- | B2 z2!mp! B2 |"^B" c4 c2 | d4 e2 | f6- | f4 f2 | g4 f2 | d4 e2 | %42
 (c6 | F4) z2 | g4 f2 | d4 e2 | c6 | !fermata!d6 | e6 | g6 | f6 | d6 | c6- | c2 d2 c2 | B6- | %55
 B2 z2 z2 | z6 | z6 :| z6 | z6 | z6 | z6 | z6 | z2 |] %64
V:2
 x6 | x6 | x6 | x6 |: x6 | x6 | x6 | x6 | x6 | x6 | x6 | x6 | x6 | x6 | x6 | x6 | x6 | x6 | x6 | %19
 x6 || x6 | x6 | x6 | x6 | x6 | x6 | x6 | x6 | x6 | x6 | x6 | x6 | x6 | x6 | x6 | x6 | x6 | x6 | %38
 x6 | x6 | x6 | x6 | x6 | x4 f2 | x6 | x6 | x6 | x6 | x6 | x6 | x6 | x6 | x6 | x6 | x6 | x6 | x6 | %57
 x6 :| x6 | x6 | x6 | x6 | x6 | x2 |] %64
V:3
!p!"^Maestoso" z2 (DFGF) | z2 (DFGF) | z2 (DFGF) | z2 (DFGF) |: z2 (DFGF) | z2 (DFGF) | z2 (CEFE) | %7
 z2 (CEFE) | z2 (CEFE) | z2 (CEFE) | z2 (DFGF) | z2 (DFGF) | z2 (DFGF) | z2 (DFGF) | z2 (EFGF) | %15
 z2 (EFGF) | z2 (CEFE) | z2 (CEFE) | z2 (DFGF) | z2 (DFGF) || z2!mf! (DFGF) | z2 (DFGF) | %22
 z2 (CEFE) | z2 (CEFE) | z2 (CEFE) | z2 (CEFE) | z2 (DFGF) | z2 (DFGF) | z2 (DFGF) | z2 (DFGF) | %30
 z2 (EFGF) | z2 (EFGF) | z2 (CEFE) | z2 (CEFE) | z2 (DFGF) | z2 (DFGF) | z2!p! (A,EFE) | %37
 z2 (A,EFE) | z2 (B,DFD) | z2 (B,DFD) | z2 (B,DFD) | z2 (B,DFD) | z2 (CEFE) | z2 (CEFE) | %44
 z2 (B,DFD) | z2 (B,DFD) | z2 (A,CEF) | !fermata![_A,DF]6 | !arpeggio![G,B,E]6 | %49
 !arpeggio![B,_DG]6 | !arpeggio![B,DF]6 | !arpeggio![F,=B,D]6 | !arpeggio![G,B,E]6 | %53
 !arpeggio![A,EF]6 | z2 (DFGF) | z2 (DFGF) | z2 (DFGF) | z2 (DFGF) :| z2 (DFGF) | z2 (DFGF) | %60
 z2 (DFGF) | z2 (DFGF) |!p! z2 (DFGF) |!pp! z2 |] %64
V:4
!ped! [B,,,B,,]4 z2 | [F,,,F,,]4 z2 | [B,,,B,,]4 z2 | [F,,,F,,]4 z2 |:!ped! [B,,,B,,]4 z2 | %5
 [F,,,F,,]4 z2 | [C,,C,]4 z2 | [F,,,F,,]4 z2 | [C,,C,]4 z2 | [F,,,F,,]4 z2 | [B,,,B,,]4 z2 | %11
 [F,,,F,,]4 z2 | [B,,,B,,]4 z2 | [D,,D,]4 z2 | [E,,E,]4 z2 | [C,,C,]4 z2 | [F,,,F,,]4 z2 | %17
 [F,,,F,,]4 z2 | [B,,,B,,]4 z2 | [F,,,F,,]4!ped-up! z2 ||!ped! [B,,,B,,]4 z2 | [F,,,F,,]4 z2 | %22
 [C,,C,]4 z2 | [F,,,F,,]4 z2 | [C,,C,]4 z2 | [F,,,F,,]4 z2 | [B,,,B,,]4 z2 | [F,,,F,,]4 z2 | %28
 [B,,,B,,]4 z2 | [D,,D,]4 z2 | [E,,E,]4 z2 | [C,,C,]4 z2 | [F,,,F,,]4 z2 | [F,,,F,,]4 z2 | %34
 [B,,,B,,]4 z2 | [F,,,F,,]4 z2 |!ped! [F,,,F,,]4 z2 | [C,,C,]4 z2 | [B,,,B,,]4 z2 | [F,,,F,,]4 z2 | %40
 [B,,,B,,]4 z2 | [F,,,F,,]4 z2 | [A,,,A,,]4 z2 | [C,,C,]4 z2 | [B,,,B,,]4 z2 | [F,,,F,,]4 z2 | %46
 [F,,F,]4 z2 | !fermata![B,,,B,,]6!ped-up! | !arpeggio![E,,B,,E,]6 | !arpeggio![=E,,=E,]6 | %50
 !arpeggio![F,,F,]6 | !arpeggio![G,,,G,,]6 | !arpeggio![C,,C,]6 | !arpeggio![F,,,F,,]6 | %54
!ped! [B,,,B,,]4 z2 | [F,,,F,,]4 z2 | [B,,,B,,]4 z2 | [F,,,F,,]4 z2 :|!ped! [B,,,B,,]4 z2 | %59
 [F,,,F,,]4 z2 | [B,,,B,,]4 z2 | [F,,,F,,]4 z2 |!ped! !>![B,,,B,,]4 z2 | [F,,,F,,]2!ped-up! |] %64
V:5
 x6 | x6 | x6 | x6 |: x6 | x6 | x6 | x6 | x6 | x6 | x6 | x6 | x6 | x6 | x6 | x6 | x6 | x6 | x6 | %19
 x6 || x6 | x6 | x6 | x6 | x6 | x6 | x6 | x6 | x6 | x6 | x6 | x6 | x6 | x6 | x6 | x6 | x6 | x6 | %38
 x6 | x6 | x6 | x6 | x6 | x6 | x6 | x6 | x6 | x6 | x6 | x6 | x6 | x6 | x6 | x6 | x6 | x6 | x6 | %57
 x6 :| x6 | x6 | x6 | x6 | B6- | [DB]2 |] %64

